images/users/squarespace.svg

<?xml version="1.0" encoding="UTF-8" standalone="no"?>
<svg width="223px" height="31px" viewBox="0 0 223 31" version="1.1" xmlns="http://www.w3.org/2000/svg" xmlns:xlink="http://www.w3.org/1999/xlink" xmlns:sketch="http://www.bohemiancoding.com/sketch/ns">
    <title>Squarespace</title>
    <defs></defs>
    <g id="Page-1" stroke="none" stroke-width="1" fill="none" fill-rule="evenodd" sketch:type="MSPage">
        <path d="M32.7055,14.13525 C31.9725,13.40325 30.7845,13.40325 30.0525,14.13525 L18.1145,26.07325 C16.6495,27.53825 14.2735,27.53825 12.8085,26.07325 C12.0765,25.34025 10.8885,25.34025 10.1565,26.07325 C9.4235,26.80525 9.4235,27.99325 10.1565,28.72525 C13.0865,31.65625 17.8375,31.65625 20.7675,28.72525 L32.7055,16.78825 C33.4375,16.05625 33.4375,14.86825 32.7055,14.13525 L32.7055,14.13525 Z M26.0735,10.15625 L14.1355,22.09425 C13.4025,22.82625 13.4025,24.01425 14.1355,24.74625 C14.8685,25.47925 16.0555,25.47925 16.7885,24.74625 L28.7255,12.80925 C30.1905,11.34425 32.5665,11.34425 34.0315,12.80925 C35.4965,14.27425 35.4965,16.64925 34.0315,18.11525 L22.3235,29.82325 C23.7885,31.28825 26.1635,31.28825 27.6295,29.82325 L36.6845,20.76725 C39.6145,17.83725 39.6145,13.08625 36.6845,10.15625 C33.7545,7.22625 29.0035,7.22625 26.0735,10.15625 L26.0735,10.15625 Z M24.7465,8.82925 C25.4785,8.09725 25.4785,6.90925 24.7465,6.17725 C24.0135,5.44425 22.8265,5.44425 22.0945,6.17725 L10.1565,18.11425 C8.6905,19.57925 6.3155,19.57925 4.8505,18.11425 C3.3855,16.64925 3.3855,14.27425 4.8505,12.80825 L16.5585,1.10025 C15.0945,-0.36475 12.7185,-0.36475 11.2535,1.10025 L2.1975,10.15625 C-0.7325,13.08625 -0.7325,17.83725 2.1975,20.76725 C5.1285,23.69825 9.8785,23.69825 12.8085,20.76725 L24.7465,8.82925 L24.7465,8.82925 Z M6.1775,16.78825 C6.9095,17.52025 8.0965,17.52025 8.8295,16.78825 L20.7675,4.85025 C22.2325,3.38525 24.6075,3.38525 26.0725,4.85025 C26.8055,5.58325 27.9935,5.58325 28.7255,4.85025 C29.4585,4.11825 29.4585,2.93025 28.7255,2.19825 C25.7955,-0.73275 21.0455,-0.73275 18.1145,2.19825 L6.1775,14.13525 C5.4445,14.86825 5.4445,16.05625 6.1775,16.78825 L6.1775,16.78825 Z M119.7185,15.02725 L119.7185,8.62925 L124.5875,8.62925 C127.1315,8.62925 128.6185,9.80025 128.6185,11.73825 L128.6185,11.78325 C128.6185,13.81125 126.9295,15.02725 124.5625,15.02725 L119.7185,15.02725 L119.7185,15.02725 Z M130.4215,11.71625 L130.4215,11.67025 C130.4215,10.43225 129.9715,9.32725 129.2055,8.56125 C128.2145,7.57025 126.6585,6.98425 124.7225,6.98425 L117.9405,6.98425 L117.9405,22.75525 L119.7185,22.75525 L119.7185,16.62725 L124.2235,16.62725 L128.7995,22.75525 L130.9845,22.75525 L126.1405,16.31225 C128.6185,15.86125 130.4215,14.32825 130.4215,11.71625 L130.4215,11.71625 Z M180.2605,16.98725 L183.8655,8.94425 L187.4465,16.98725 L180.2605,16.98725 L180.2605,16.98725 Z M183.0535,6.87125 L175.8655,22.75525 L177.6905,22.75525 L179.5595,18.58725 L188.1455,18.58725 L189.9925,22.75525 L191.9075,22.75525 L184.7195,6.87125 L183.0535,6.87125 L183.0535,6.87125 Z M103.1815,16.98725 L106.7865,8.94425 L110.3695,16.98725 L103.1815,16.98725 L103.1815,16.98725 Z M105.9755,6.87125 L98.7895,22.75525 L100.6135,22.75525 L102.4835,18.58725 L111.0685,18.58725 L112.9145,22.75525 L114.8305,22.75525 L107.6425,6.87125 L105.9755,6.87125 L105.9755,6.87125 Z M154.9785,14.01425 C151.5115,13.27125 150.6995,12.43625 150.6995,10.95025 L150.6995,10.90525 C150.6995,9.48625 152.0065,8.35925 154.0555,8.35925 C155.6775,8.35925 157.1445,8.87625 158.6075,10.07025 L159.6435,8.69725 C158.0455,7.41325 156.3995,6.75925 154.1005,6.75925 C151.1045,6.75925 148.9195,8.58425 148.9195,11.06225 L148.9195,11.10725 C148.9195,13.69925 150.5875,14.87025 154.2145,15.65925 C157.5255,16.35725 158.3145,17.19025 158.3145,18.65525 L158.3145,18.70025 C158.3145,20.25525 156.9165,21.38025 154.8005,21.38025 C152.6155,21.38025 151.0385,20.63825 149.3925,19.15125 L148.2895,20.45725 C150.1815,22.14725 152.2315,22.98125 154.7325,22.98125 C157.8645,22.98125 160.1165,21.22325 160.1165,18.52025 L160.1165,18.47425 C160.1165,16.06425 158.4955,14.77925 154.9785,14.01425 L154.9785,14.01425 Z M136.0095,15.61325 L144.6155,15.61325 L144.6155,13.99125 L136.0095,13.99125 L136.0095,8.60625 L145.6305,8.60625 L145.6305,6.98425 L134.2295,6.98425 L134.2295,22.75525 L145.7425,22.75525 L145.7425,21.13225 L136.0095,21.13225 L136.0095,15.61325 L136.0095,15.61325 Z M55.6875,14.01425 C52.2185,13.27125 51.4075,12.43625 51.4075,10.95025 L51.4075,10.90525 C51.4075,9.48625 52.7145,8.35925 54.7635,8.35925 C56.3855,8.35925 57.8515,8.87625 59.3145,10.07025 L60.3515,8.69725 C58.7515,7.41325 57.1075,6.75925 54.8095,6.75925 C51.8115,6.75925 49.6265,8.58425 49.6265,11.06225 L49.6265,11.10725 C49.6265,13.69925 51.2935,14.87025 54.9225,15.65925 C58.2335,16.35725 59.0225,17.19025 59.0225,18.65525 L59.0225,18.70025 C59.0225,20.25525 57.6245,21.38025 55.5075,21.38025 C53.3225,21.38025 51.7455,20.63825 50.0995,19.15125 L48.9965,20.45725 C50.8885,22.14725 52.9385,22.98125 55.4395,22.98125 C58.5715,22.98125 60.8235,21.22325 60.8235,18.52025 L60.8235,18.47425 C60.8235,16.06425 59.2025,14.77925 55.6875,14.01425 L55.6875,14.01425 Z M173.7485,12.09825 C173.7485,14.17125 172.0355,15.56825 169.4215,15.56825 L165.5235,15.56825 L165.5235,8.62925 L169.5125,8.62925 C172.0585,8.62925 173.7485,9.80025 173.7485,12.05425 L173.7485,12.09825 L173.7485,12.09825 Z M169.6455,6.98425 L163.7435,6.98425 L163.7435,22.75525 L165.5235,22.75525 L165.5235,17.19025 L169.3545,17.19025 C172.7115,17.19025 175.5505,15.43325 175.5505,12.03125 L175.5505,11.98725 C175.5505,8.87625 173.2065,6.98425 169.6455,6.98425 L169.6455,6.98425 Z M212.4995,21.13225 L212.4995,15.61325 L221.1085,15.61325 L221.1085,13.99125 L212.4995,13.99125 L212.4995,8.60625 L222.1215,8.60625 L222.1215,6.98425 L210.7205,6.98425 L210.7205,22.75525 L222.2345,22.75525 L222.2345,21.13225 L212.4995,21.13225 L212.4995,21.13225 Z M201.3485,21.38025 C197.8795,21.38025 195.2425,18.52025 195.2425,14.87025 L195.2425,14.82525 C195.2425,11.19825 197.8545,8.35925 201.3485,8.35925 C203.4885,8.35925 204.9745,9.25925 206.3055,10.52225 L207.5215,9.21525 C205.9455,7.72725 204.2325,6.71425 201.3705,6.71425 C196.7285,6.71425 193.3945,10.40925 193.3945,14.87025 L193.3945,14.91525 C193.3945,19.44425 196.7525,23.02625 201.3035,23.02625 C204.1645,23.02625 205.9675,21.92225 207.6115,20.25525 L206.4395,19.10625 C204.9305,20.54725 203.5105,21.38025 201.3485,21.38025 L201.3485,21.38025 Z M94.7105,16.15425 C94.7105,19.60225 92.8635,21.35925 89.9575,21.35925 C86.9365,21.35925 85.1355,19.44425 85.1355,16.04125 L85.1355,6.98425 L83.3555,6.98425 L83.3555,16.15425 C83.3555,20.61525 86.0135,23.00425 89.9115,23.00425 C93.8545,23.00425 96.4905,20.61525 96.4905,16.01925 L96.4905,6.98425 L94.7105,6.98425 L94.7105,16.15425 L94.7105,16.15425 Z M76.6185,18.99325 L73.7125,16.35725 L72.5175,17.68725 L75.4485,20.18825 C74.4785,20.93125 73.2155,21.38025 71.8195,21.38025 C68.2155,21.38025 65.6015,18.45225 65.6015,14.87025 L65.6015,14.82525 C65.6015,11.24325 68.1695,8.35925 71.7755,8.35925 C75.3795,8.35925 77.9935,11.28725 77.9935,14.87025 L77.9935,14.91525 C77.9935,16.46925 77.4755,17.88825 76.6185,18.99325 L76.6185,18.99325 Z M79.8405,14.87025 L79.8405,14.82525 C79.8405,10.47625 76.6185,6.71425 71.8195,6.71425 C67.0205,6.71425 63.7525,10.52225 63.7525,14.87025 L63.7525,14.91525 C63.7525,19.26425 66.9765,23.02625 71.7755,23.02625 C73.7345,23.02625 75.4255,22.39525 76.7535,21.33625 L78.8265,23.22725 L80.0435,21.89825 L77.9485,20.16525 C79.1645,18.72325 79.8405,16.85225 79.8405,14.87025 L79.8405,14.87025 Z" id="squarespace-logo-horizontal-black" fill="#1A1918" sketch:type="MSShapeGroup"></path>
    </g>
</svg>

<svg width="500" height="200" viewBox="0 0 223 31" xmlns="http://www.w3.org/2000/svg"><title>Squarespace</title><path d="M32.7055 14.13525c-.733-.732-1.921-.732-2.653 0l-11.938 11.938c-1.465 1.465-3.841 1.465-5.306 0-.732-.733-1.92-.733-2.652 0-.733.732-.733 1.92 0 2.652 2.93 2.931 7.681 2.931 10.611 0l11.938-11.937c.732-.732.732-1.92 0-2.653zm-6.632-3.979l-11.938 11.938c-.733.732-.733 1.92 0 2.652.733.733 1.92.733 2.653 0l11.937-11.937c1.465-1.465 3.841-1.465 5.306 0 1.465 1.465 1.465 3.84 0 5.306l-11.708 11.708c1.465 1.465 3.84 1.465 5.306 0l9.055-9.056c2.93-2.93 2.93-7.681 0-10.611-2.93-2.93-7.681-2.93-10.611 0zm-1.327-1.327c.732-.732.732-1.92 0-2.652-.733-.733-1.92-.733-2.652 0l-11.938 11.937c-1.466 1.465-3.841 1.465-5.306 0-1.465-1.465-1.465-3.84 0-5.306l11.708-11.708c-1.464-1.465-3.84-1.465-5.305 0l-9.056 9.056c-2.93 2.93-2.93 7.681 0 10.611 2.931 2.931 7.681 2.931 10.611 0l11.938-11.938zm-18.569 7.959c.732.732 1.919.732 2.652 0l11.938-11.938c1.465-1.465 3.84-1.465 5.305 0 .733.733 1.921.733 2.653 0 .733-.732.733-1.92 0-2.652-2.93-2.931-7.68-2.931-10.611 0l-11.937 11.937c-.733.733-.733 1.921 0 2.653zm113.541-1.761v-6.398h4.869c2.544 0 4.031 1.171 4.031 3.109v.045c0 2.028-1.689 3.244-4.056 3.244h-4.844zm10.703-3.311v-.046c0-1.238-.45-2.343-1.216-3.109-.991-.991-2.547-1.577-4.483-1.577h-6.782v15.771h1.778v-6.128h4.505l4.576 6.128h2.185l-4.844-6.443c2.478-.451 4.281-1.984 4.281-4.596zm49.839 5.271l3.605-8.043 3.581 8.043h-7.186zm2.793-10.116l-7.188 15.884h1.825l1.869-4.168h8.586l1.847 4.168h1.915l-7.188-15.884h-1.666zm-79.872 10.116l3.605-8.043 3.583 8.043h-7.188zm2.794-10.116l-7.186 15.884h1.824l1.87-4.168h8.585l1.846 4.168h1.916l-7.188-15.884h-1.667zm49.003 7.143c-3.467-.743-4.279-1.578-4.279-3.064v-.045c0-1.419 1.307-2.546 3.356-2.546 1.622 0 3.089.517 4.552 1.711l1.036-1.373c-1.598-1.284-3.244-1.938-5.543-1.938-2.996 0-5.181 1.825-5.181 4.303v.045c0 2.592 1.668 3.763 5.295 4.552 3.311.698 4.1 1.531 4.1 2.996v.045c0 1.555-1.398 2.68-3.514 2.68-2.185 0-3.762-.742-5.408-2.229l-1.103 1.306c1.892 1.69 3.942 2.524 6.443 2.524 3.132 0 5.384-1.758 5.384-4.461v-.046c0-2.41-1.621-3.695-5.138-4.46zm-18.969 1.599h8.606v-1.622h-8.606v-5.385h9.621v-1.622h-11.401v15.771h11.513v-1.623h-9.733v-5.519zm-80.322-1.599c-3.469-.743-4.28-1.578-4.28-3.064v-.045c0-1.419 1.307-2.546 3.356-2.546 1.622 0 3.088.517 4.551 1.711l1.037-1.373c-1.6-1.284-3.244-1.938-5.542-1.938-2.998 0-5.183 1.825-5.183 4.303v.045c0 2.592 1.667 3.763 5.296 4.552 3.311.698 4.1 1.531 4.1 2.996v.045c0 1.555-1.398 2.68-3.515 2.68-2.185 0-3.762-.742-5.408-2.229l-1.103 1.306c1.892 1.69 3.942 2.524 6.443 2.524 3.132 0 5.384-1.758 5.384-4.461v-.046c0-2.41-1.621-3.695-5.136-4.46zm118.061-1.916c0 2.073-1.713 3.47-4.327 3.47h-3.898v-6.939h3.989c2.546 0 4.236 1.171 4.236 3.425v.044zm-4.103-5.114h-5.902v15.771h1.78v-5.565h3.831c3.357 0 6.196-1.757 6.196-5.159v-.044c0-3.111-2.344-5.003-5.905-5.003zm42.854 14.148v-5.519h8.609v-1.622h-8.609v-5.385h9.622v-1.622h-11.401v15.771h11.514v-1.623h-9.735zm-11.151.248c-3.469 0-6.106-2.86-6.106-6.51v-.045c0-3.627 2.612-6.466 6.106-6.466 2.14 0 3.626.9 4.957 2.163l1.216-1.307c-1.576-1.488-3.289-2.501-6.151-2.501-4.642 0-7.976 3.695-7.976 8.156v.045c0 4.529 3.358 8.111 7.909 8.111 2.861 0 4.664-1.104 6.308-2.771l-1.172-1.149c-1.509 1.441-2.929 2.274-5.091 2.274zm-106.638-5.226c0 3.448-1.847 5.205-4.753 5.205-3.021 0-4.822-1.915-4.822-5.318v-9.057h-1.78v9.17c0 4.461 2.658 6.85 6.556 6.85 3.943 0 6.579-2.389 6.579-6.985v-9.035h-1.78v9.17zm-18.092 2.839l-2.906-2.636-1.195 1.33 2.931 2.501c-.97.743-2.233 1.192-3.629 1.192-3.604 0-6.218-2.928-6.218-6.51v-.045c0-3.582 2.568-6.466 6.174-6.466 3.604 0 6.218 2.928 6.218 6.511v.045c0 1.554-.518 2.973-1.375 4.078zm3.222-4.123v-.045c0-4.349-3.222-8.111-8.021-8.111-4.799 0-8.067 3.808-8.067 8.156v.045c0 4.349 3.224 8.111 8.023 8.111 1.959 0 3.65-.631 4.978-1.69l2.073 1.891 1.217-1.329-2.095-1.733c1.216-1.442 1.892-3.313 1.892-5.295z" fill="#1A1918" fill-rule="evenodd"/></svg>
